X:1
T:Consolation
T:Consolation
T:Trost
T:Johann Friedrich Franz Burgmüller (1806-1874) Opus 100. 
T:25 Etudes faciles
T:by Mutopia-2013/01/12-224 - public domain
C:Johann Friedrich Franz Burgmüller (1806-1874) Opus 100.
Z:25 Etudes faciles
Z:by Mutopia-2013/01/12-224 - public domain
%%score { ( 1 2 ) | ( 3 4 ) }
L:1/8
Q:1/4=152
M:4/4
K:C
V:1 treble nm="Piano" snm="Pf."
V:2 treble 
V:3 bass 
V:4 bass 
V:1
"^Allegro moderato" z (!4!d!5!ed!p! eded) | z (!3!c!4!dc dcdc) |"_cresc." z (!4!fgf gfgf) | %3
w: |||
 z (!3!efe fefe) | z (!4!efe _e=efe) | !>!!4!ed^c!1!d bafd | !3!=cG!2!Bc e2 d2 |: %7
w: |||* rall. * * * *|
 z!p! G"^a tempo"!<(!cG dGeG!<)! | e2 d2 ^c2 d2 | (c2 B2 A2 B2 | d2 c2) (!2!AG!2!^F!1!G | %11
w: ||||
"_cresc." AG c2 d2 e2 | e2 B2 c2!f! B2 | !3!B!mf!"_dim. e poco rit."^ABc B!5!ag^f | %14
w: |||
 e)(BgB e2) z2 ::"^a tempo" (!4!d2 ^c2 d2 B2 | (c2) B2 c2 A2 |"_cresc." (!2!B2) !1!c2 !2!^c2 d2 | %18
w: ||||
 !1!c2 d2 ^d2 e2) |!mf! (!2!d2 !2!^c2 !2!d2 !1!B2 | =c2 B2 c2 A2 | (!1!B)cde fdAB |1 %22
w: ||||
 c)(GeG c2) z2 :|2 c(GeG !5!d!2!ABG || c)(GeG dABG | %25
w: |||
"_dim. e poco rit." !3!c)(B!1!c!3!e !5!g!2!^d!1!e!2!g |!p! !5!c'2) z2 z4 |] %27
w: ||
V:2
 G8 | G8 | B8 | c8 | A8 | x8 | x4 eGdG |: x2 c2 d2 e2 | eGdG ^cGdG | =cGBG AGBG | dGcG x4 | %11
 AGcG dGeG | eGBG cGBG | x8 | x8 :: x8 | x8 | x8 | x8 | dg^cg dgBg | cgBg cgAg | x8 |1 x8 :|2 x8 || %24
 x8 | x8 | x8 |] %27
V:3
 [G,F]8 | [G,E]8 | [G,D]8 | [G,C]8 | !5!!4!!2![G,A,^C]8 | !5!!3!!1![F,A,D]8 | [G,CE]4 [G,B,F]4 |: %7
[K:treble] [CE]8 | [B,F]8 | [G,F]8 | [CE]8 | [CE]8 | !1!!4![B,E]8 | %13
 !3!!5![B,^D]4- [B,D]!2!^F!1!BA | !3!!5![EG]6 z2 ::!p! !2!FGEG FGDG | EGDG EGCG | DGEG EGFG | %18
 EGB,G B,GCG | (F2 E2 F2 D2 | E2 D2 E2 C2) | (!2!D4 G,4 |1 [CE]6) z2 :|2 [CE]4 ([G,F]4 || %24
 [CE]4) ([G,F]4 | [CE]4) z4 |[K:bass] C,2 z2 z4 |] %27
V:4
 x8 | x8 | x8 | x8 | x8 | x8 | x8 |:[K:treble] x8 | x8 | x8 | x8 | x8 | x8 | x8 | x8 :: %15
 F2 E2 F2 D2 | E2 D2 E2 C2 | D2 E2 E2 F2 | E2 B,2 B,2 C2 | x8 | x8 | x8 |1 x8 :|2 x8 || x8 | x8 | %26
[K:bass] x8 |] %27

